X: 5406
T: Buffett Double, The
R: reel
M: 4/4
K: Adorian
|:eAAG Aedc|BGGA BGBd|eAAG Aedc|BGGB A2Ad|
eAAG Aedc|BGGA BGBd|1 eAAG Aedc|BGGB A4:|2 e2ed efge|dBGB A4||
|:e2ed efge|dBGA BGBd|e2ed edef|g2 b2 a4|
f2ed efge|dBGA BGBd|e2ed efge|dBGB A4:|

